src/symbolic/apps/multimedia-photo-manager-symbolic.svg

<svg xmlns="http://www.w3.org/2000/svg" width="16" height="16"><path d="M8 7L7 8H5c-.47 0-1 .54-1 1v6c0 .45.532 1 1 1h10c.47 0 1-.55 1-1V9c0-.46-.53-1-1-1h-2l-1-1zm2 2c1.66 0 3 1.34 3 3 0 1.65-1.34 3-3 3s-3-1.35-3-3c0-1.66 1.34-3 3-3zm0 1a2 2 0 1 0 2 2c0-1.11-.89-2-2-2z" fill="#444"/><path d="M1 0C0 0 0 1 0 1v10c0 1 1 1 1 1h2v-2H2V7.5l2.5-2.94L6.63 7l.99-1h4.83l1 1H14V1c0-1-1-1-1-1z" fill="#444"/></svg>

<svg xmlns="http://www.w3.org/2000/svg" width="16" height="16" version="1.1">
 <path style="fill:#444444" d="M 8,7 7,8 H 5 C 4.5292,8 4,8.54 4,9 V 15 C 4,15.45 4.5325,16 5,16 H 15 C 15.47,16 16,15.45 16,15 V 9 C 16,8.54 15.47,8 15,8 H 13 L 12,7 Z M 10,9 C 11.66,9 13,10.34 13,12 13,13.65 11.66,15 10,15 8.34,15 7,13.65 7,12 7,10.34 8.34,9 10,9 Z M 10,10 C 8.9,10 8,10.89 8,12 8,13.1 8.9,14 10,14 11.11,14 12,13.1 12,12 12,10.89 11.11,10 10,10 Z"/>
 <path style="fill:#444444" d="M 1,0 C 0,0 0,1 0,1 V 11 C 0,12 1,12 1,12 H 3 V 10 H 2 V 7.5 L 4.5,4.56 6.63,7 7.62,6 H 12.45 L 13.45,7 H 14 V 1 C 14,0 13,0 13,0 Z"/>
</svg>
